X: 4218
T: MOURNE MOUNTAINS
R: Jig
%R: jig
B: James Kerr "Merry Melodies" v.4 p.24 #218
Z: 2016 John Chambers <jc:trillian.mit.edu>
M: 6/8
L: 1/8
K: G
|:\
BcB AGA | BcB AGA | B2D E2D | BBD E2D |\
BcB AGA | BdB AGA | B2D E2D | G3- G2B :|
|:\
ded BGB | d2d d3  | efe cAc | e2e e3 |\
ded BdB | gfe dcB | d2D E2D | G3- G2d :|

%%sep 1 1 500
%%sep 1 1 500

